launcher/android/assets/skins/day/svg/satellite.svg

<svg enable-background="new 0 0 259.20 259.20" height="259.2" viewBox="0 0 259.2 259.2" width="259.2" xmlns="http://www.w3.org/2000/svg" xmlns:xlink="http://www.w3.org/1999/xlink"><linearGradient id="a"><stop offset="0" stop-color="#1f2d27"/><stop offset=".665116" stop-color="#b2cebf"/><stop offset=".990698" stop-color="#fff"/></linearGradient><linearGradient id="b" gradientTransform="matrix(-.124310330623 -.992243388338 .992243388338 -.124310330623 .10560745046 2.053548287326)" gradientUnits="objectBoundingBox" x1=".958968" x2="2.28745" xlink:href="#a" y1=".980173" y2=".980173"/><linearGradient id="c" gradientTransform="matrix(-.127801884007 -.991799716901 .991799716901 -.127801884007 .096952683738 2.114195113364)" gradientUnits="objectBoundingBox" x1=".978098" x2="2.38274" y1="1.01447" y2="1.01447"><stop offset="0" stop-color="#4c5e56"/><stop offset=".665116" stop-color="#d0d9d4"/><stop offset=".990698" stop-color="#fff"/></linearGradient><linearGradient id="d" gradientTransform="matrix(-.511791492473 -.85910969511 .85910969511 -.511791492473 .854401918435 2.253795206995)" gradientUnits="objectBoundingBox" x1="1.06759" x2="2.43832" y1=".884131" y2=".884131"><stop offset="0" stop-color="#3a4941"/><stop offset=".665116" stop-color="#769685"/><stop offset=".990698" stop-color="#d2d5d4"/></linearGradient><linearGradient id="e" gradientTransform="matrix(-.527814752242 -.849359515939 .849359515939 -.527814752242 .922501643805 2.400133220833)" gradientUnits="objectBoundingBox" x1="1.12841" x2="2.66689" xlink:href="#a" y1=".943643" y2=".943643"/><linearGradient id="f"><stop offset="0" stop-color="#070707"/><stop offset=".990698" stop-color="#2c312f"/></linearGradient><linearGradient id="g" gradientTransform="matrix(0 1 -1 0 .476119 -.523881)" gradientUnits="objectBoundingBox" x1=".5" x2="1.54778" xlink:href="#f" y1="-.0238814" y2="-.0238814"/><linearGradient id="h" gradientTransform="matrix(0 1 -1 0 .692457 -.307543)" gradientUnits="objectBoundingBox" x1=".5" x2="1.1151" xlink:href="#f" y1=".192457" y2=".192457"/><linearGradient id="i" gradientUnits="objectBoundingBox" x1="-.00684922" x2="1.00685" xlink:href="#f" y1=".499995" y2=".499995"/><linearGradient id="j" gradientUnits="objectBoundingBox" x1="-.0111109" x2="1.01111" xlink:href="#f" y1=".5" y2=".5"/><g stroke-linejoin="round"><path d="m148.888 34.5549c58.884 18.7447 99.054 57.7019 89.722 87.0151-9.331 29.313-64.629 37.879-123.513 19.135-58.8834-18.744-99.0536-57.7018-89.7225-87.0146 9.3312-29.3127 64.6293-37.8801 123.5135-19.1355z" fill="url(#c)" stroke="url(#b)" stroke-width="9"/><path d="m55.9502 104.613 86.9338-60.2666" fill="none" stroke="#72a18c" stroke-width="3"/><path d="m163.95 55.0046 64 72.0004" fill="none" stroke="#466c5b" stroke-width="3"/><path d="m151.15 53.4158-33.6 54.4002 62.4 4" fill="none" stroke="#6d9a86" stroke-width="3"/><path d="m158.07 39.6965c7.509 3.229 12.111 9.3018 10.278 13.5635-1.833 4.2622-9.406 5.0991-16.915 1.8699-7.508-3.2288-12.11-9.3015-10.277-13.5635 1.832-4.2615 9.406-5.0989 16.914-1.8699z" fill="url(#e)" stroke="url(#d)" stroke-width="3"/><g fill="none"><path d="m54.8836 235.813 41.5135-74.667 60.8869 74.667" stroke="url(#g)" stroke-linecap="round" stroke-width="15"/><path d="m131.684 154.746-34.2523 2.43-2.0148 85.037" stroke="url(#h)" stroke-linecap="round" stroke-width="15"/><path d="m96.4834 139.816-17.5999 16 35.1995 17.6 11.2-22.4" stroke="url(#i)" stroke-width="12"/><path d="m96.4834 144.615 23.9996 12.801" stroke="url(#j)" stroke-width="12"/></g></g></svg>

﻿<?xml version="1.0" encoding="utf-8"?>
<!DOCTYPE svg PUBLIC "-//W3C//DTD SVG 1.1//EN" "http://www.w3.org/Graphics/SVG/1.1/DTD/svg11.dtd">
<svg xmlns="http://www.w3.org/2000/svg" xmlns:xlink="http://www.w3.org/1999/xlink" version="1.1" baseProfile="full" width="259.2" height="259.2" viewBox="0 0 259.20 259.20" enable-background="new 0 0 259.20 259.20" xml:space="preserve">
	<g>
		<linearGradient id="SVGID_Stroke1_" gradientUnits="objectBoundingBox" x1="0.958968" y1="0.980173" x2="2.28745" y2="0.980173" gradientTransform="rotate(262.859070 0.958968 0.980173)">
			<stop offset="0" stop-color="#1F2D27" stop-opacity="1"/>
			<stop offset="0.665116" stop-color="#B2CEBF" stop-opacity="1"/>
			<stop offset="0.990698" stop-color="#FFFFFF" stop-opacity="1"/>
		</linearGradient>
		<linearGradient id="SVGID_Fill1_" gradientUnits="objectBoundingBox" x1="0.978098" y1="1.01447" x2="2.38274" y2="1.01447" gradientTransform="rotate(262.657410 0.978098 1.014467)">
			<stop offset="0" stop-color="#4C5E56" stop-opacity="1"/>
			<stop offset="0.665116" stop-color="#D0D9D4" stop-opacity="1"/>
			<stop offset="0.990698" stop-color="#FFFFFF" stop-opacity="1"/>
		</linearGradient>
		<path fill="url(#SVGID_Fill1_)" stroke-width="9" stroke-linejoin="round" stroke="url(#SVGID_Stroke1_)" d="M 148.888,34.5549C 207.772,53.2996 247.942,92.2568 238.61,121.57C 229.279,150.883 173.981,159.449 115.097,140.705C 56.2136,121.961 16.0434,83.0032 25.3745,53.6904C 34.7057,24.3777 90.0038,15.8103 148.888,34.5549 Z "/>
		<line fill="none" stroke-width="3" stroke-linejoin="round" stroke="#72A18C" stroke-opacity="1" x1="55.9502" y1="104.613" x2="142.884" y2="44.3464"/>
		<line fill="none" stroke-width="3" stroke-linejoin="round" stroke="#466C5B" stroke-opacity="1" x1="163.95" y1="55.0046" x2="227.95" y2="127.005"/>
		<path fill="none" stroke-width="3" stroke-linejoin="round" stroke="#6D9A86" stroke-opacity="1" d="M 151.15,53.4158L 117.55,107.816L 179.95,111.816"/>
		<linearGradient id="SVGID_Stroke2_" gradientUnits="objectBoundingBox" x1="1.06759" y1="0.884131" x2="2.43832" y2="0.884131" gradientTransform="rotate(239.216766 1.067586 0.884131)">
			<stop offset="0" stop-color="#3A4941" stop-opacity="1"/>
			<stop offset="0.665116" stop-color="#769685" stop-opacity="1"/>
			<stop offset="0.990698" stop-color="#D2D5D4" stop-opacity="1"/>
		</linearGradient>
		<linearGradient id="SVGID_Fill2_" gradientUnits="objectBoundingBox" x1="1.12841" y1="0.943643" x2="2.66689" y2="0.943643" gradientTransform="rotate(238.142075 1.128405 0.943643)">
			<stop offset="0" stop-color="#1F2D27" stop-opacity="1"/>
			<stop offset="0.665116" stop-color="#B2CEBF" stop-opacity="1"/>
			<stop offset="0.990698" stop-color="#FFFFFF" stop-opacity="1"/>
		</linearGradient>
		<path fill="url(#SVGID_Fill2_)" stroke-width="3" stroke-linejoin="round" stroke="url(#SVGID_Stroke2_)" d="M 158.07,39.6965C 165.579,42.9255 170.181,48.9983 168.348,53.26C 166.515,57.5222 158.942,58.3591 151.433,55.1299C 143.925,51.9011 139.323,45.8284 141.156,41.5664C 142.988,37.3049 150.562,36.4675 158.07,39.6965 Z "/>
		<linearGradient id="SVGID_Stroke3_" gradientUnits="objectBoundingBox" x1="0.5" y1="-0.0238814" x2="1.54778" y2="-0.0238814" gradientTransform="rotate(90.000000 0.500000 -0.023881)">
			<stop offset="0" stop-color="#070707" stop-opacity="1"/>
			<stop offset="0.990698" stop-color="#2C312F" stop-opacity="1"/>
		</linearGradient>
		<path fill="none" stroke-width="15" stroke-linecap="round" stroke-linejoin="round" stroke="url(#SVGID_Stroke3_)" d="M 54.8836,235.813L 96.3971,161.146L 157.284,235.813"/>
		<linearGradient id="SVGID_Stroke4_" gradientUnits="objectBoundingBox" x1="0.5" y1="0.192457" x2="1.1151" y2="0.192457" gradientTransform="rotate(90.000000 0.500000 0.192457)">
			<stop offset="0" stop-color="#070707" stop-opacity="1"/>
			<stop offset="0.990698" stop-color="#2C312F" stop-opacity="1"/>
		</linearGradient>
		<path fill="none" stroke-width="15" stroke-linecap="round" stroke-linejoin="round" stroke="url(#SVGID_Stroke4_)" d="M 131.684,154.746L 97.4317,157.176L 95.4169,242.213"/>
		<linearGradient id="SVGID_Stroke5_" gradientUnits="objectBoundingBox" x1="-0.00684922" y1="0.499995" x2="1.00685" y2="0.499995">
			<stop offset="0" stop-color="#070707" stop-opacity="1"/>
			<stop offset="0.990698" stop-color="#2C312F" stop-opacity="1"/>
		</linearGradient>
		<path fill="none" stroke-width="12" stroke-linejoin="round" stroke="url(#SVGID_Stroke5_)" d="M 96.4834,139.816L 78.8835,155.816L 114.083,173.416L 125.283,151.016"/>
		<linearGradient id="SVGID_Stroke6_" gradientUnits="objectBoundingBox" x1="-0.0111109" y1="0.5" x2="1.01111" y2="0.5">
			<stop offset="0" stop-color="#070707" stop-opacity="1"/>
			<stop offset="0.990698" stop-color="#2C312F" stop-opacity="1"/>
		</linearGradient>
		<line fill="none" stroke-width="12" stroke-linejoin="round" stroke="url(#SVGID_Stroke6_)" x1="96.4834" y1="144.615" x2="120.483" y2="157.416"/>
	</g>
</svg>
